X: 36995
T: Sidbury Four Hand
R: reel
M: 4/4
K: Gmajor
D2|:GABG D2 G2|AGFE D2 c2|BdBG AcAF|GFGE D2 D2|
GABG D2 G2|AGFE D2 c2|BdBG AcAF|1 G2 G2 G2 D2:|2 G2 G2 G2 GA||
|:BAGA Bc d2|cBAB cd e2|dcBA Bc d2|AGFG A4|
BAGA Bc d2|cBAB cd e2|dcBd cBAF|1 G2 G2 G2 GA:|2 G2 G2 G4||

